X:1001
M:C|
L:1/8
Q:1/4=72 "Slow"
K:D
     A>BA>F A>Bd>B   |    B/A/G/F/   A/G/F/E/     D2  D   :|
f/g/|ad`fa  df/g/ a>f|    g>a        b/a/g/f/  {f}e2  ef/g/|\
     ad`fa  df/g/ af |    g<e````````a>f          d2  df/g/|
     ad`fa  df/g/ af |    g>a        b/a/g/f/     e2  e>a  |\
     f>ae>f d>eBd    |    B/A/G/F/   A/G/F/E/     D2  D   ||
     D>FAF  d>FA>F   |({B}G2)       (A/G/F/E/) {E}D2  D   :|
f/g/|a>ba>f d>faf    |    g>a        b/a/g/f/ ({f}e2) ef/g/|\
     a>baf  d>faf    |    g<e````````a>f          d2  df/g/|
     a>baf  d>faf    |    g/f/g/a/   b/a/g/f/  {f}e2  e>a  |\
     f>ae>f d>eB>d   |   (B/A/G/F/) (A/G/F/E/) {E}D2  D   |]

